X:330
T:Shaskeen
Z: id:dc-reel-308
M:C
L:1/8
K:G Major
E|DGG2 AGAB|cded cAAc|BGG2 AFF2|GBAG FDD2|!
DGG2 AGAB|cded cAAg|f2fe fdcA|BGAF G3:|!
B|dggf g2fg|abag fddc|BGG2 AFF2|GBAG FDD|!
[1 B|dggf g2fg|abag fddc|BGG2 AFF2|GBAF G3:|!
[2 A|BGG2 cAA2|d^cde d=cAg|f2fe fdcA|BGAF G3|]!

